X: 23
T: the Successful Campaign   [G]
S: Roaring Jelly collection (R-29)
O: Walsh 1764
B: Barnes 2
Z: unknown
M: C|
R: reel
K: G
|:"G"G2GB "D7"A2Ac | "G"BGBd g4 | "G"gfed "C"edcB | "Am"cBAG "D7"FAFD |
y "G"G2GB "D7"A2Ac | "G"BGBd "Em"g4 | "Am"gfed "A7"efga | "D"f2"A7"e2 "D"d2z2 :|
|:"D/f#"d2d{e}f "E(m)"e2d2 | "Am"c2B2 c2A2 | "C"c2c{d}e "D7"d2c2 | "G"B2A2 B2G2 |
y "G"G2GB "D7"A2Ac | "G"BGBd g4 "I"| "G"gfed "C"efg[ac] | "G"B2"D7"A2 "G"G4 :|

%%sep 2 1 500

